Simply-Purple-Circles/scalable/apps/gnome-disks.svg

<svg xmlns="http://www.w3.org/2000/svg" width="48" height="48" viewBox="0 0 12.7 12.7"><path fill="#963996" d="M6.344.077A6.267 6.267 0 0 0 .076 6.344a6.267 6.267 0 0 0 6.268 6.267 6.267 6.267 0 0 0 6.267-6.267A6.267 6.267 0 0 0 6.344.077zm-.018.932a5.388 5.388 0 0 1 5.388 5.39 5.388 5.388 0 0 1-5.388 5.387A5.388 5.388 0 0 1 .937 6.398a5.388 5.388 0 0 1 5.39-5.389zM3.654 2.717c-.253 0-.397.035-.45.234l-1.22 4.527 8.732.005L9.397 2.95c-.037-.13-.232-.234-.396-.234H3.654zm2.068.32a.119.119 0 0 1 .062 0c.432.133.83.43 1.011.775.144.272.159.58.071.88.076.21.232.481.537.783l1.505 1.487H7.183L6.54 6.33c-.338-.335-.632-.48-.854-.546-.554.122-1.107-.084-1.355-.554-.182-.345-.203-.86-.08-1.312.005-.016.007-.032.019-.044a.114.114 0 0 1 .087-.035c.03.002.057.018.071.044l.493.95c.044.085.15.117.29.106a1.22 1.22 0 0 0 .484-.167 1.26 1.26 0 0 0 .397-.335c.082-.117.106-.232.061-.316l-.493-.942c-.018-.034-.01-.074.018-.106.013-.015.025-.03.044-.035zM1.986 7.784l.194 1.14h8.359l.175-1.14H1.986z"/></svg>

<?xml version="1.0" encoding="UTF-8" standalone="no"?>
<svg
   xmlns:dc="http://purl.org/dc/elements/1.1/"
   xmlns:cc="http://creativecommons.org/ns#"
   xmlns:rdf="http://www.w3.org/1999/02/22-rdf-syntax-ns#"
   xmlns:svg="http://www.w3.org/2000/svg"
   xmlns="http://www.w3.org/2000/svg"
   xmlns:sodipodi="http://sodipodi.sourceforge.net/DTD/sodipodi-0.dtd"
   xmlns:inkscape="http://www.inkscape.org/namespaces/inkscape"
   width="48"
   height="48"
   viewBox="0 0 12.7 12.7"
   version="1.1"
   id="svg4"
   sodipodi:docname="gnome-disks.svg"
   inkscape:version="0.92.4 (5da689c313, 2019-01-14)">
  <metadata
     id="metadata10">
    <rdf:RDF>
      <cc:Work
         rdf:about="">
        <dc:format>image/svg+xml</dc:format>
        <dc:type
           rdf:resource="http://purl.org/dc/dcmitype/StillImage" />
        <dc:title></dc:title>
      </cc:Work>
    </rdf:RDF>
  </metadata>
  <defs
     id="defs8" />
  <sodipodi:namedview
     pagecolor="#ffffff"
     bordercolor="#666666"
     borderopacity="1"
     objecttolerance="10"
     gridtolerance="10"
     guidetolerance="10"
     inkscape:pageopacity="0"
     inkscape:pageshadow="2"
     inkscape:window-width="1087"
     inkscape:window-height="480"
     id="namedview6"
     showgrid="false"
     inkscape:zoom="4.9166667"
     inkscape:cx="2.1355932"
     inkscape:cy="24"
     inkscape:window-x="0"
     inkscape:window-y="25"
     inkscape:window-maximized="0"
     inkscape:current-layer="svg4" />
  <path
     d="M 6.344,0.077 A 6.267,6.267 0 0 0 0.076,6.344 6.267,6.267 0 0 0 6.344,12.611 6.267,6.267 0 0 0 12.611,6.344 6.267,6.267 0 0 0 6.344,0.077 Z M 6.326,1.009 A 5.388,5.388 0 0 1 11.714,6.399 5.388,5.388 0 0 1 6.326,11.786 5.388,5.388 0 0 1 0.937,6.398 5.388,5.388 0 0 1 6.327,1.009 Z M 3.654,2.717 c -0.253,0 -0.397,0.035 -0.45,0.234 L 1.984,7.478 10.716,7.483 9.397,2.95 C 9.36,2.82 9.165,2.716 9.001,2.716 H 3.654 Z m 2.068,0.32 a 0.119,0.119 0 0 1 0.062,0 c 0.432,0.133 0.83,0.43 1.011,0.775 0.144,0.272 0.159,0.58 0.071,0.88 0.076,0.21 0.232,0.481 0.537,0.783 L 8.908,6.962 H 7.183 L 6.54,6.33 C 6.202,5.995 5.908,5.85 5.686,5.784 5.132,5.906 4.579,5.7 4.331,5.23 4.149,4.885 4.128,4.37 4.251,3.918 4.256,3.902 4.258,3.886 4.27,3.874 A 0.114,0.114 0 0 1 4.357,3.839 c 0.03,0.002 0.057,0.018 0.071,0.044 l 0.493,0.95 c 0.044,0.085 0.15,0.117 0.29,0.106 A 1.22,1.22 0 0 0 5.695,4.772 1.26,1.26 0 0 0 6.092,4.437 C 6.174,4.32 6.198,4.205 6.153,4.121 L 5.66,3.179 C 5.642,3.145 5.65,3.105 5.678,3.073 5.691,3.058 5.703,3.043 5.722,3.038 Z M 1.986,7.784 2.18,8.924 h 8.359 l 0.175,-1.14 z"
     id="path2"
     inkscape:connector-curvature="0"
     style="fill:#963996" />
</svg>
